X:231
T:The Snake Charmer Song
T:The Streets of Cairo
Z:Jack Campin, http://www.campin.me.uk/
F:Jack Campin's Nine-Note Tunebook
% last edit 03-02-2013
C:Sol Bloom and James Thornton, 1893 
H:see http://www.shira.net/streets-of-cairo.htm
M:4/4
L:1/8
Q:1/4=120
K:DMin
DE| F2 E2 D2 DE|FA  EF  D2   :|\
z2| AA AB AG EF|
                GG  GA  GF     \
DE| FF FG FE DE|F2  EE  D2 z2||
K:F
  |:A4    A3  F|G>A G>F D2 C2 |\
[1  F2 A2 c2 d2|
                c2  d2  cA G2:|\
[2  F2 AF G2 A2|F4      z2   |]


% == Anglo-American dance tunes =============================================

